frontend/app/images/authentication/security.svg

<svg width="86" height="106" viewBox="0 0 86 106" fill="none" xmlns="http://www.w3.org/2000/svg">
<path d="M43 0.750191L0.25 19.7502V48.2502C0.25 74.6127 18.49 99.2652 43 105.25C67.51 99.2652 85.75 74.6127 85.75 48.2502V19.7502L43 0.750191Z" fill="url(#paint0_linear_109_1299)"/>
<path d="M35.8753 58.7004L56.8941 37.6817C57.5472 37.0285 58.3785 36.702 59.3878 36.702C60.3972 36.702 61.2285 37.0285 61.8816 37.6817C62.5347 38.3348 62.8613 39.166 62.8613 40.1754C62.8613 41.1848 62.5347 42.016 61.8816 42.6692L38.3691 66.1817C37.6566 66.8942 36.8253 67.2504 35.8753 67.2504C34.9253 67.2504 34.0941 66.8942 33.3816 66.1817L24.1191 56.9192C23.466 56.266 23.1394 55.4348 23.1394 54.4254C23.1394 53.416 23.466 52.5848 24.1191 51.9317C24.7722 51.2785 25.6035 50.952 26.6128 50.952C27.6222 50.952 28.4535 51.2785 29.1066 51.9317L35.8753 58.7004Z" fill="white"/>
<defs>
<linearGradient id="paint0_linear_109_1299" x1="43.2415" y1="105.25" x2="43.2415" y2="0.750189" gradientUnits="userSpaceOnUse">
<stop stop-color="#7842F6"/>
<stop offset="1" stop-color="#509CE9"/>
</linearGradient>
</defs>
</svg>

<svg width="86" height="106" fill="none" xmlns="http://www.w3.org/2000/svg"><path d="M43 .75l-42.75 19v28.5c0 26.363 18.24 51.015 42.75 57 24.51-5.985 42.75-30.637 42.75-57v-28.5L43 .75z" fill="url(#paint0_linear_109_1299)"/><path d="M35.875 58.7l21.02-21.018c.652-.654 1.483-.98 2.493-.98 1.01 0 1.84.327 2.494.98.653.653.98 1.484.98 2.493 0 1.01-.327 1.841-.98 2.494L38.369 66.182c-.712.712-1.544 1.068-2.494 1.068-.95 0-1.78-.356-2.493-1.068l-9.263-9.263c-.653-.653-.98-1.484-.98-2.494 0-1.009.327-1.84.98-2.493.653-.654 1.485-.98 2.494-.98 1.01 0 1.84.327 2.494.98l6.768 6.768z" fill="#fff"/><defs><linearGradient id="paint0_linear_109_1299" x1="43.242" y1="105.25" x2="43.242" y2=".75" gradientUnits="userSpaceOnUse"><stop stop-color="#7842F6"/><stop offset="1" stop-color="#509CE9"/></linearGradient></defs></svg>
